picto/luggage-push-carts-prohibited.svg

<svg class="color-immutable" width="24" height="24" viewBox="0 0 24 24" fill="none" xmlns="http://www.w3.org/2000/svg"><path d="M0 22.5V1.5C0 0.675 0.675 0 1.5 0H22.5C23.325 0 24 0.675 24 1.5V22.5C24 23.325 23.325 24 22.5 24H1.5C0.675 24 0 23.325 0 22.5Z" fill="#2D327D"/><path d="M6.12403 18.552C5.45103 18.552 4.90503 19.098 4.90503 19.77C4.90503 20.443 5.45103 20.989 6.12403 20.989C6.79703 20.989 7.34203 20.443 7.34203 19.77C7.34203 19.098 6.79603 18.552 6.12403 18.552Z" fill="white"/><path d="M21.05 19.973L18.937 17.86V17.25H18.327L17.734 16.657C18.42 16.518 18.936 15.912 18.936 15.187V10.5C18.936 9.672 18.264 9 17.436 9H14.624V8.249C14.624 7.836 14.288 7.501 13.873 7.501H11.25C10.836 7.501 10.499 7.836 10.499 8.249V9H10.077L3.70801 2.631L2.64801 3.692L7.95601 9H7.68701C6.85901 9 6.18701 9.671 6.18701 10.5V15.189C6.18701 16.015 6.86001 16.689 7.68701 16.689H15.644L16.207 17.252H5.62401V7.875C5.62401 7.669 5.45701 7.501 5.25001 7.501H3.37501C3.16801 7.501 3.00001 7.669 3.00001 7.875C3.00001 8.082 3.16801 8.249 3.37501 8.249H4.87501V18H16.956L17.531 18.575C16.971 18.685 16.549 19.179 16.549 19.77C16.549 20.443 17.094 20.989 17.768 20.989C18.359 20.989 18.852 20.567 18.963 20.007L19.99 21.034L21.05 19.973ZM11.25 8.249H13.874V9H11.25V8.249Z" fill="white"/><path d="M3.70801 2.631L2.64801 3.692L19.99 21.034L21.05 19.973L3.70801 2.631Z" fill="#EB0000"/></svg>

<svg class="color-immutable" width="24" height="24" viewBox="0 0 24 24" fill="none" xmlns="http://www.w3.org/2000/svg"><g clip-path="url(#a)"><path d="M0 22.5v-21C0 .675.675 0 1.5 0h21c.825 0 1.5.675 1.5 1.5v21c0 .825-.675 1.5-1.5 1.5h-21C.675 24 0 23.325 0 22.5Z" fill="#2D327D"/><path d="M6.124 18.552a1.22 1.22 0 1 0 0 2.438 1.22 1.22 0 0 0 0-2.438ZM21.05 19.973l-2.113-2.113v-.61h-.61l-.593-.593a1.502 1.502 0 0 0 1.202-1.47V10.5a1.5 1.5 0 0 0-1.5-1.5h-2.812v-.751a.75.75 0 0 0-.751-.748H11.25a.75.75 0 0 0-.751.748V9h-.422L3.708 2.631l-1.06 1.061L7.956 9h-.269a1.5 1.5 0 0 0-1.5 1.5v4.689c0 .826.673 1.5 1.5 1.5h7.957l.563.563H5.624V7.875a.374.374 0 0 0-.374-.374H3.375a.375.375 0 1 0 0 .748h1.5V18h12.081l.575.575a1.219 1.219 0 1 0 1.432 1.432l1.027 1.027 1.06-1.061Zm-9.8-11.724h2.624V9H11.25v-.751Z" fill="#fff"/><path d="m3.708 2.631-1.06 1.061L19.99 21.034l1.06-1.061L3.708 2.631Z" fill="#EB0000"/></g><defs><clipPath id="a"><path fill="#fff" d="M0 0h24v24H0z"/></clipPath></defs></svg>
